icons/arrow/left.svg

<svg width="32" height="32" viewBox="0 0 32 32" xmlns="http://www.w3.org/2000/svg"><path fill-rule="evenodd" clip-rule="evenodd" d="M8.08087 15L15.3738 7.70711L13.9595 6.29289L4.95955 15.2929L4.25244 16L4.95955 16.7071L13.9595 25.7071L15.3738 24.2929L8.08087 17H28V15H8.08087Z"/></svg>

<svg viewBox="0 0 32 32" xmlns="http://www.w3.org/2000/svg"><path fill-rule="evenodd" d="M8.08 15l7.294-7.293-1.415-1.414-9 9-.707.707.708.707 9 9 1.414-1.414L8.08 17H28v-2H8.08z"/></svg>
